X:1
T:Gioite voi
T:Gioite voi
T:Giovanni Ghizzolo
C:Giovanni Ghizzolo
%%score [ 1 2 3 ]
L:1/8
Q:1/4=120
M:3/4
K:F
V:1 treble nm="Soprano" snm="S"
V:2 treble nm="MusicXML Part"
V:3 bass nm="BC" snm="BC"
V:1
"^Source: Madrigali et Arie---Libro terzo---Venetia---A.Raverij.16O9""^Continuo : André Vierendeels""^Editor: André Vierendeels (29/09/08)" cB A2 G2 | %1
w: Gio- * i- te|
 A6 | G2 G4 |[M:4/4] F4 z2 c2- | c2 B2 Bcd_e- | e6 ^F2 | G2 z A"^-" B3 c | A2 d4 B>A | %8
w: voi|c'ol can-|to men-|* tr'io pian- * * *|* ge|so- spi- * *|ro ne- sen- te|
 AGAc- c2 F>F | F2 z G/A/ G4 | F8 :: z4 c4 | d8- | d4 e4- | e=B c>d B4 | A4 c4- | c2 B2 B2 AA | %17
w: l'al- ma mia un _ mi- ni-|mo re- * spi-|ro.|Ha-|i|_ mi-|* se- ro mio co-|re na-|* to sol al do-|
 A8 | G8 | z4 _A4- | A2"^-natural" A>A B2 =B2 | c4 c3 e | _e>d d>c c4- | cG G>F G4 | G4 z2 d2- | %25
w: lo-|re|pian-|* gi, mia pian- gi|tan- to che|vi- tal mio pe- nar|_ co- nos- ca'in le-|i gl'af-|
"^#" d4 ^F4 | F6 c2- | c4 E4 | F/D/E/F/ G/C/c/G/ A/B/c/A/ B/G/A/F/ | G2 A2 G4 | F8 :| %31
w: * fa-|* ni'e|_ do-|lor _ _ _ _ _ _ _ _ _ _ _ _ _ _ _|_ _ mie-|i.|
V:2
 [Ac]4 [EGc]2 | [FA]6 | [DF]2 [EG]4 |[M:4/4] [FAc]8 | G4 B4 | [Gc]4 [EA]2 [D^FA]2 | [DB]8 | [FA]8 | %8
 [DB]4 [FAc]4 | [DB]2 [Ac]2 [EGc]4 | [FAc]8 :: [F-Ac-]8 | [FAc]4 [Ad]4 | [DGB]4 [EA]4 | %14
 [E=B]4 [Ae]2 [^Ge]2 | [EAc]8 | [DG]8 | [DA]4 [FA]4 | [DB]8 | [_Ac]8 | [^FA]4 [D=F]2 [DG]2 | %21
 [EG]4 [_EG-]4 | [EG]4 [EA]4 | [DG]4 [EG]4- | [EG]4 [DG]4 | [DA]8 | D4 [EA]4 | [EG]8 | [FAc]8 | %29
 [EG]2 [F_A]2 [CF]2 [EG]2 | [FAc]8 :| %31
V:3
 F,4 E,2 | D,3 C, A,,2 | B,,2 C,4 |[M:4/4] F,,4 F,4 | _E,4 D,4 | C,4 A,,4 | G,,8 | D,8 | G,4 A,,4 | %9
 B,,2 F,,2 C,4 | F,,8 :: F,8- | F,4 ^F,4 | G,4 ^C,4 | E,8 | A,,8 | G,,8 | ^C,4 D,4 | G,,8 | F,8 | %20
 D,8 | C,8 | C,4 A,,4 | B,,2 D,2 C,4 | C,4 =B,,4 | D,8 | =B,,4 A,,4 | C,8 | F,,8 | C,8 | F,,8 :| %31

